picto/stairs-up-left-framed.svg

<svg class="color-immutable" width="30" height="30" viewBox="0 0 30 30" fill="none" xmlns="http://www.w3.org/2000/svg"><path d="M29.9998 0H0V29.9998H29.9998V0Z" fill="#2D327D"/><path d="M25.4999 2.99998C26.3249 2.99998 26.9999 3.67498 26.9999 4.49998V25.4999C26.9999 26.3249 26.3249 26.9999 25.4999 26.9999H4.49998C3.67498 26.9999 2.99998 26.3249 2.99998 25.4999V4.49998C2.99998 3.67498 3.67498 2.99998 4.49998 2.99998H25.4999ZM25.4999 2.62499H4.49998C3.46611 2.62499 2.62499 3.46611 2.62499 4.49998V25.4999C2.62499 26.5337 3.46611 27.3749 4.49998 27.3749H25.4999C26.5337 27.3749 27.3749 26.5337 27.3749 25.4999V4.49998C27.3749 3.46611 26.5337 2.62499 25.4999 2.62499Z" fill="white"/><path d="M20.7335 8.63553C21.4579 8.63553 22.0461 8.04761 22.0461 7.32296C22.0461 6.59847 21.4579 6.0107 20.7335 6.0107C20.009 6.0107 19.4212 6.59854 19.4212 7.32296C19.4212 8.04754 20.009 8.63553 20.7335 8.63553Z" fill="white"/><path d="M22.0498 19.2096V11.587L22.8747 12.6745V15.3745C22.8747 15.6435 23.093 15.862 23.3623 15.862C23.6312 15.862 23.8499 15.6436 23.8499 15.3745V12.2886C23.8499 12.125 23.7961 11.9657 23.6971 11.8352L22.1197 9.75595V9.75587C21.8363 9.38215 21.394 9.16247 20.9248 9.16247C20.0966 9.16247 19.4249 9.83455 19.4249 10.6625V15.9376L17.882 17.4805C17.7412 17.6209 17.6621 17.8118 17.6621 18.0106V22.2557C17.6621 22.6386 17.9729 22.9493 18.3558 22.9493C18.7388 22.9493 19.0496 22.6386 19.0496 22.2557V18.487L20.5498 16.9868V19.2234C20.5498 19.3679 20.5914 19.5092 20.6699 19.6305L23.0512 23.3154C23.179 23.5131 23.3984 23.6326 23.6338 23.6326C24.0167 23.6326 24.3275 23.3219 24.3275 22.9389C24.3275 22.8053 24.289 22.6746 24.2164 22.5624L22.0498 19.2096Z" fill="white"/><path d="M17.7185 14.6042C17.7771 14.6042 17.8356 14.594 17.8908 14.574L18.7872 14.2495V13.1728L17.5461 13.622C17.3459 13.6944 17.2123 13.8848 17.2123 14.098C17.2123 14.3774 17.4392 14.6042 17.7185 14.6042Z" fill="white"/><path d="M9.41226 21.2244H12.8247V22.6119H16.2372V23.9994H20.3247V23.3244H16.9124V21.9371H13.4999V20.5495H10.0873V19.162H5.99985V19.8369H9.41226V21.2244Z" fill="white"/></svg>

<svg class="color-immutable" width="30" height="30" viewBox="0 0 30 30" fill="none" xmlns="http://www.w3.org/2000/svg"><path d="M30 0H0v30h30V0Z" fill="#2D327D"/><path d="M25.5 3c.825 0 1.5.675 1.5 1.5v21c0 .825-.675 1.5-1.5 1.5h-21c-.825 0-1.5-.675-1.5-1.5v-21C3 3.675 3.675 3 4.5 3h21Zm0-.375h-21A1.877 1.877 0 0 0 2.625 4.5v21c0 1.034.841 1.875 1.875 1.875h21a1.877 1.877 0 0 0 1.875-1.875v-21A1.877 1.877 0 0 0 25.5 2.625Z" fill="#fff"/><path d="M20.733 8.636a1.313 1.313 0 1 0 0-2.627 1.313 1.313 0 0 0 0 2.627ZM22.05 19.21v-7.623l.825 1.088v2.7a.488.488 0 0 0 .975 0v-3.086a.75.75 0 0 0-.153-.454l-1.577-2.08a1.5 1.5 0 0 0-2.695.907v5.276l-1.543 1.542a.749.749 0 0 0-.22.53v4.246a.694.694 0 0 0 1.388 0v-3.769l1.5-1.5v2.236c0 .145.041.286.12.408l2.381 3.684a.694.694 0 0 0 1.165-.753L22.05 19.21Z" fill="#fff"/><path d="M17.718 14.604c.06 0 .118-.01.173-.03l.896-.325v-1.076l-1.24.449a.506.506 0 0 0 .171.982ZM9.412 21.224h3.413v1.388h3.412v1.387h4.088v-.675h-3.413v-1.387H13.5V20.55h-3.413v-1.387H6v.675h3.412v1.387Z" fill="#fff"/></svg>
